X:1
T:Diligam te Domine mea
T:DILIGAM TE DOMINE MEA
T:Sammlung MUSICA SACRA, 1856 - No. 30 B.
T:Alexei LVOV
T:© Edition Monika Feinen, Creative Commons Attribution-NonCommercial-ShareAlike 4.0
T:© Edition Monika Feinen, Creative Commons Attribution-NonCommercial-ShareAlike 4.0
T:© Edition Monika Feinen, Creative Commons Attribution-NonCommercial-ShareAlike 4.0
T:© Edition Monika Feinen, Creative Commons Attribution-NonCommercial-ShareAlike 4.0
T:© Edition Monika Feinen, Creative Commons Attribution-NonCommercial-ShareAlike 4.0
T:© Edition Monika Feinen, Creative Commons Attribution-NonCommercial-ShareAlike 4.0
T:© Edition Monika Feinen, Creative Commons Attribution-NonCommercial-ShareAlike 4.0
T:© Edition Monika Feinen, Creative Commons Attribution-NonCommercial-ShareAlike 4.0
T:© Edition Monika Feinen, Creative Commons Attribution-NonCommercial-ShareAlike 4.0
T:© Edition Monika Feinen, Creative Commons Attribution-NonCommercial-ShareAlike 4.0
C:Alexei Lvov
Z:© Edition Monika Feinen, Creative Commons Attribution-NonCommercial-ShareAlike 4.0
%%score [ ( 1 2 ) ( 3 4 ) ( 5 6 ) ( 7 8 9 ) ]
L:1/8
Q:1/4=88
M:3/4
K:C
V:1 treble nm="SOPRANO."
V:2 treble 
V:3 treble nm="ALTO."
V:4 treble 
V:5 treble-8 nm="TENORE."
V:6 treble-8 
V:7 bass nm="BASSO."
V:8 bass 
V:9 bass 
V:1
"^Adagio Sostenuto  M.M." z6 | z6 | z6 | z6 | z6 | z6 | z6 | z6 | z6 | z6 | z6 | z6 | %12
w: ||||||||||||
"^TUTTI."!p! c3/2 B/ A2 c2 |!>(! c2 B2!>)! z2 |"^cres." !>!B3 d e f | f2 e z!p! e e | d2 d z c c | %17
w: di- li- gam _|te _|for- ti- tu- do|me- a de- us|me- us fir- ma-|
 !>!c>B B z B2 |!<(! A2 f2 e2!<)! |!>(! e>d d!>)! z z2 | =d4 d2 | !>!d4 c2 |!pp! B3/2 B/ A2 ^G2 | %23
w: men- * tum re-|fu- gi- um|me- * um|Do- mi-|nus re-|fu- gi- um _|
 A2 A z z2 | z6 | z6 | z2"^SOLO."!f! g2 f2 |!>(! e2 d2!>)! c2 | c2 f2 e2 |!p! edc_B A G | c6- | %31
w: me- um|||De- us|me- us spe-|ra- * *|* * * * bo in|e-|
 c6 | c2"^TUTTI." c2 _e2 | d2 c_B A G | c6- | c6 | F6- | F2 z2 z2 ||[K:F][M:4/4] z8 | z8 | z8 | %41
w: |um spe- *|ra- * * bo in|e-||um|_||||
 z4 z2!p! A2 |!<(! d3!<)!!>(! c c2!>)! z2 | z8 |"^a Tempo." z8 | z4 z2 e3/2 d/ | d2 d2 z4 | z8 | %48
w: de-|mon- * stra|||me e-|do- ce||
 z8 |"^SOLO.""^a Tempo." z!f!!>(! _e3/4 e/4 d!>)!c B z z2 | z c2 B AB c c |!p! c2 B B B2 A G | %52
w: |me a- ver- * tas|ne _ fa- * ci- em|tu- am a- ver- tas a|
!<(! F2 B d!<)! !>!d2 c!p!"^TUTTI." _B | A2 d2 c=B_B B | A A A A !>!B2 B A | G4 !fermata!F2 || %56
w: ser- * vo tu- o a|ser- vo tu- * * o|ne a- ver- tas fa- ci- em|tu- am|
[K:C][M:3/4]!f!"^Tempo I" c2 | c2 c2 d3/2 d/ | f2 e2 z2 | d2 d2 d2- | dc c2 _B2 | A4 G2 | F4 d2 | %63
w: Ad-|ju- tor me- us|es- to|ne de- re-|* * lin- quas|me _|Do- *|
 dc=BA B2 | c4 z2 | z2!p! d2 d d | c2 z2 z2 | z2 A A z2 | z2"^cres." f2 e2 | %69
w: * * * * mi-|ne|quo- ni- am|tu|sua- vis|et mi-|
!<(!!>(! e3/2!<)!!>)! ^d/ d2 z2 | z2!pp! =d2 z2 | z2!<(! c2 B2!<)! |!>(! A2 B2 A2!>)! |!pp! ^G6 | %74
w: se- ri- cors|tu|in- vo-|can- ti- bus|te.|
 A6 | !fermata!^G6 ||[M:2/2][Q:1/4=116]"^Allegro non troppo.  M.M.."!mf! A4 c4 | B6 A2 | %78
w: _||Fi- at|Do- mi-|
 A2 ^G2 A2 B2 | B2 A2 c2 e2- | e2 d4 c2- | c2 B2 c2 A2 | ^G2 e4 d2 | d2 c2 B4 | A6 B2 | c2 d2 e4 | %86
w: ne mi- se- ri-|cor- * di- a|_ tu- a|_ su- * per|nos _ _|Fi- * at|Do- mi-|ne _ _|
 d4 c2 c2 | B6 ^G2 | A4 z4 | z4!ff! d4- | d2 d2 c2 B2 | e4 e2 c2 | f4 e4 | d4 ^d4 | %94
w: mi- se- ri-|cor- di-|a|mi-|* se- * ri-|cor- di- a|tu- a|su- per|
!>(! e6 =d2!>)! |!p! c2 B2 c2 A2 | e6 d2 | c2 B2 c2 A2 | e6 d2 |!f! c2 B2 c2 A2 | d4 d2 c2 | %101
w: nos _|_ _ su- per|nos _|_ _ su- per|nos _|Fi- * * at|mi- se- ri-|
 B2 A2 B2 G2 | c6 B2 | A2 G2 A2 F2 | B6 A2 | ^G2 E2 A4- | A4 ^G4 | A4 z4 | z8 | z8 | z8 | %111
w: cor- * di- a|tu- a|su- * * per|nos _|_ _ su-|* per|nos||||
!ff! c4 e4 | d4 d2 c2 | c2 B2 c2 d2 | d2 c2 e2 g2- | g2 f4 e2- | e2 d2 e2 c2 |!>(! B8!>)! | %118
w: quem- ad-|mo- dum spe-|ra- * * vi-|mus _ spe- *|* ra- *|* vi- mus in|te|
!p! c2 e2 d2 c2 | B8 |!f! c8 | c2 d2 c2 _B2 | A2 _B2 c2 ^c2 | d2 e2 d2 =c2 | =B8 | c8 | !>!c8 | %127
w: _ _ _ in|te|quem-|ad- * * mo-|dum _ _ _|_ _ _ spe-|ra-||vi-|
!>(! ^c8!>)! | d8 |!p! ^c2 B2 c2 A2 | d8 | ^c2 B2 c2 e2 |!ff! d4 d4- | d4 !>!d4- | d4 d4 | d6 c2 | %136
w: mus|in|te _ _ in|te|_ _ _ in|te spe-|* ra-|* vi-|mus in|
 B2 z2 z4 | z8 | z2 G2 c2 d2 | e2 f2 g4 | f8 | e8 | d8 | c8 | B8 | c4 z4 | z8 |!p! !>!e6 d2 | %148
w: te||spe- * *|ra- vi- mus|spe-|ra-|vi-|mus|in|te||quem- *|
 c2 B2 c2 A2 | e6 d2 | c2 B2 c2 A2- | A2 ^G2 B4- | B2 A2 c4 |"^cres." B6 d2 | c6 e2 |!>(! ^d8!>)! | %156
w: ad- * mo- *|dum spe-|ra- * * *|* vi- mus|_ in te|quem _|ad- mo-|dum|
 ^d8 | d6 ^c2 | c6 c2- | c2 B6- |!>(! B6 B2-!>)! | B2 B6 |!>(! A6 A2-!>)! | A2 B4 A2 | ^G4 ^F4 | %165
w: spe-|ra- vi-|mus in|_ te|_ spe-|* ra-|* vi-|* mus spe-|ra- vi-|
 !fermata!^G8 | z8 |!ff! d4 f4 | e6 d2 | d2 c2 B4 | A2 a4 g2 | f6 e2 | d2 g4 f2 | e6 d2 | %174
w: mus||Fi- at|Do- mi-|ne _ _|mi- * *|se- ri-|cor- * di-|a _|
 c2 f4 e2 | d6 c2 | B2 e4 d2 | c2 B2 c2 A2 | B8 | c4 B4 | !fermata!A4 z4 | %181
w: tu- * a|su- per|nos _ _|fi- at Do- mi-|ne|su- per|nos|
"^ritard"!>(! !fermata!a8!>)! |!>(! !fermata!a8!>)! |!>(! !fermata!^g8!>)! | a2 f2 e2 d2 | %185
w: quem-|ad-|mo-|dum _ _ spe-|
 c2 d2 c2 B2 | A8- |"^ritard" A6 ^G2 | !fermata!A4 z4 |] %189
w: ra- vi- mus in|te|_ in|te.|
V:2
 x6 | x6 | x6 | x6 | x6 | x6 | x6 | x6 | x6 | x6 | x6 | x6 | x6 | x6 | x6 | x6 | x6 | x6 | x6 | %19
w: |||||||||||||||||||
w: |||||||||||||||||||
 x6 | x6 | x6 | x6 | x6 | x6 | x6 | x6 | x6 | x6 | x6 | x6 | x6 | x6 | x6 | x6 | x6 | x6 | x6 || %38
w: |||||||||||||||||||
w: |||||||||||||||||||
[K:F][M:4/4] x8 | x8 | x8 | x8 | x8 | x8 | x8 | z2 c3/2 B/ A2 A2 | B4 x4 | x8 | x8 | x8 | x8 | x8 | %52
w: ||||||||||||||
w: |||||||me e- do- ce|me||||||
 x8 | x8 | x8 | x6 ||[K:C][M:3/4] x2 | x6 | x6 | x6 | x6 | x6 | x6 | x6 | x6 | x6 | x6 | %67
w: |||||||||||||||
w: |||||||||||||||
 x2 G G x2 | x6 | x6 | x6 | x6 | x6 | x6 | x6 | x6 ||[M:2/2] x8 | x8 | x8 | x8 | x8 | x8 | x8 | %83
w: ||||||||||||||||
w: ||||||||||||||||
 x8 | x8 | x8 | x8 | x8 | x8 | x8 | x8 | x8 | x8 | x8 | x8 | x8 | x8 | x8 | x8 | x8 | x8 | x8 | %102
w: |||||||||||||||||||
w: |||||||||||||||||||
 x8 | x8 | x8 | x8 | x8 | x8 | x8 | x8 | x8 | x8 | x8 | x8 | x8 | x8 | x8 | x8 | x8 | x8 | x8 | %121
w: |||||||||||||||||||
w: |||||||||||||||||||
 x8 | x8 | x8 | x8 | x8 | x8 | x8 | x8 | x8 | x8 | x8 | x8 | x8 | x8 | x8 | x8 | x8 | x8 | x8 | %140
w: |||||||||||||||||||
w: |||||||||||||||||||
 x8 | x8 | x8 | x8 | x8 | x8 | x8 | x8 | x8 | x8 | x8 | x8 | x8 | x8 | x8 | x8 | x8 | x8 | x8 | %159
w: |||||||||||||||||||
w: |||||||||||||||||||
 x8 | x8 | x8 | x8 | x8 | x8 | x8 | x8 | x8 | x8 | x8 | x8 | x8 | x8 | x8 | x8 | x8 | x8 | x8 | %178
w: |||||||||||||||||||
w: |||||||||||||||||||
 x8 | x8 | x8 | x8 | x8 | x8 | x8 | x8 | x8 | x8 | x8 |] %189
w: |||||||||||
w: |||||||||||
V:3
 z6 | z6 | z6 | z6 |"^SOLO."!p!!>(! c4 B2!>)! | A2 z2 E2 | G4 F2 | E4 z2 |!<(! A2 B2 c2!<)! | %9
w: ||||Di- li-|gam te|Do- mi-|ne|for- * ti-|
 e4 d c | B4 cd | c2 z2 z2 |"^TUTTI."!p! E6 |!>(! D3/2 E/ F2!>)! z2 |"^cres." G3 B c d | %15
w: tu- * do|me- * *|a|di-|* li- gam|for- ti- tu- do|
 G2 G z!p! G G | ^G2 G z A A | !>!A>^G G z G2 |!<(! A2 A2 A2!<)! |!>(! A2 A!>)! z z2 | A2 ^G2 E2 | %21
w: me- a de- us|me- us fir- ma-|men- * tum re-|fu- gi- um|me- um|Do- * mi-|
 !>!E4 E2 |!pp! F3/2 F/ E2 D2 | C2 C z z2 | z2"^SOLO." A2 G2 |"^cres" z2 c2 A2 | _B4!f! A2 | %27
w: nus re-|fu- gi- um _|me- um|De- us|et spe-|ra- bo|
!>(! G2 F2!>)! G2 | A4 G2 |!p! F4 z2 |!p! F2 _B2 A2 | G6 | F2!p!"^TUTTI." F4 | F4 D D | C2 E2 F2 | %35
w: in _ _|e- *|um|in _ _|e-|um spe-|ra- bo in|e- * *|
 G2 FD C2 | C6- | C2 z2 z2 ||[K:F][M:4/4] z8 | z8 | z8 | z4 z2!p! A2 |!<(! B4!<)!!>(! A2!>)! z2 | %43
w: |um|_||||de-|mon- stra|
 z8 | z2 B3/2 A/ G4- | G6 ^F2 | G4 z4 | z8 | z8 |"^SOLO." z!f!!>(! A3/4 A/4 G!>)!^F G z z G | %50
w: |me e- do-|* ce|me|||me a- ver- * tas a|
 G2 F G FGA G |!p! A^F G G GE =F z |!<(! D2 F =B!<)! !>!B2 G!p!"^TUTTI." G | F2 F2 CDE E | %54
w: ser- * vo tu- * * o|fa- * ci- em tu- * am|a ser- vo tu- o a|ser- vo tu- * * o|
 F F F F !>!F2 F F | F2 E2 !fermata!C2 ||[K:C][M:3/4]!f! E2 | E2 E2 G3/2 G/ | G2 G2 c2- | %59
w: ne a- ver- tas fa- ci- em|tu- * am|Ad-|ju- tor me- us|es- to ne|
 c2 BA GF | E2 G2 E2 | F4 ^C2 | D4 A2 | G2 F2 (GF) | E4 z2 | z2!p! G2 G G | G2 z2 z2 | z2 E E z2 | %68
w: _ de- * re- *|lin- * quas|me _|Do- *|* * mi- *|ne|quo- ni- am|tu|sua- vis|
 z2 D2 c2 | c3/2 C/ C2 z2 | z2!pp! F2 z2 | z2!<(! E2 D2!<)! |!>(! E2 F2 ^F2!>)! |!pp! E6- | E6- | %75
w: et mi-|se- ri- cors|tu|in- vo-|can- ti- bus|te.|_|
 !fermata!E6 ||[M:2/2] z8 | z8 | z8 | z8 | z8 | z8 | z8 |!mf! E4 F4 | E6 E2 | E8 | E8 | E8 | %88
w: ||||||||Fi- at|Do- mi-|ne|Do-|mi-|
 C4!f! A2 A2 | A8 | E6 ^G2- | G2 A4 A2 | A8 | A4 A4 |!>(! ^G2 ^F2 G2 E2!>)! |!p! E8 | %96
w: ne su- per|nos|mi- se-|* * ri-|cor-|di- a|su- * * per|nos|
 ^G2 ^F2 G2 E2 | E8 | ^G2 ^F2 G2 E2 | E4 z4 | z8 | z8 | z8 | z8 | z8 | E4 F4- | F2 E4 D2 | %107
w: su- * * per|nos|su- * * per|nos||||||Fi- at|_ Do- mi-|
 C2 E2 ^F2 ^G2 | A2 B2 c4 | c2 B4 A2- | A2 =G4 =F2 | E2 z2!ff! (G4 | A2) A2 A4- | A2 G2 G2 z2 | %114
w: ne mi- * *|se- * *|* * ri-|* cor- di-|a tu-|* a su-|* per nos|
 z8 | z8 | z8 | z2!p! A2 G2 F2 | E4 E4 | F2 A2 G2 F2 |!f! E4 G4 | F6 E2 | F6 G2 | ^F8 | %124
w: |||quem- * *|ad- mo-|dum _ _ spe-|ra- vi-|mus in|te quem-|ad-|
 G2 A2 G2 =F2 | E8 | !>!F8 |!>(! G2 E2 A2 G2!>)! | F2 A2 G2 F2 |!p! A4 G4 | F2 E2 F2 D2 | %131
w: * * * mo-|dum|spe-|ra- * * *|* vi- mus in|te _|_ _ _ spe-|
 G4 E2 A2 |!ff! F2 E2 D2 F2 | G2 F2 E2 G2 | A2 G2 F2 G2 | A2 z2 z4 | G4 A4 | G6 F2 | E2 G2 A2 B2 | %139
w: ra- vi- *|mus _ spe- *|ra- * vi- *|mus _ in _|te|quem- *|ad- mo-|dum spe- * *|
 c2 d2 e4- | e4 d4- | d4 c4- | c4 B4- | B4 A4- | A4 ^G4 | A2 G2 A2 E2 |!>(! E4 D2!>)! A2 | %147
w: ra- vi- mus|_ spe-|* ra-|* vi-|* mus|_ in|te _ _ spe-|ra- * vi-|
!p! ^G2 ^F2 G2 E2 | E8 | ^G2 ^F2 G2 E2 | E8- | E8- | E6 A2- | A2"^cres." ^G2 B4- | B2 A2 c2 A2 | %155
w: mus _ _ in|te|_ _ _ in|te|_|* spe-|* * ra-|* * * vi-|
 A8 | ^G2 ^F2 G2 E2 | A8 | A2 ^G2 A2 E2 |!>(! ^F6 =F2-!>)! | F2 E6- | E6 ^F2- | F2 E6- | E6 E2 | %164
w: mus|_ _ in _|te|quem- * ad- mo-|dum spe-|* ra-|* vi-|* mus|_ spe-|
 E4 ^D4 | !fermata!E8 |!ff! A4 c4 | B6 A2 | A2 ^G2 A2 B2 | A4 ^G4 | A2 c2 f2 e2- | e2 e2 d2 =c2 | %172
w: ra- vi-|mus|Fi- at|Do- mi-|ne mi- se- ri-|cor- di-|a _ tu- a|_ su- * per|
 B4 e2 d2- | d2 d2 c2 B2 | A4 d2 c2- | c2 c2 B2 A2 | ^G2 ^F2 G2 E2 | E6 E2 | F2 E2 D2 F2 | %179
w: nos fi- at|_ su- * per|nos fi- at|_ mi- se- ri-|cor- * di- a|tu- a|su- * per nos|
 E2 A4 ^G2 | !fermata!A4 z4 |"^ritard"!>(! !fermata!c8!>)! |!>(! !fermata!B8!>)! | %183
w: su- * per|nos|quem-|ad-|
!>(! !fermata!B8!>)! | c2 d2 c2 B2 | A2 [FB]2 [EA]2 [D^G]2 | [CA]2 z2 z4 |"^ritard" z4!pp! E2 D2 | %188
w: mo-|dum _ _ spe-|ra- vi- mus in|te|in _|
 !fermata!C4 z4 |] %189
w: te.|
V:4
 x6 | x6 | x6 | x6 | E4 D2 | C2 x2 E2 | D4 D2 | C4 x2 | x6 | A4 A2 | ^G4 AE | E2 x4 | x6 | x6 | %14
w: ||||||||||||||
w: |||||||||me- a|||||
 x3 G G G | x6 | x6 | x6 | x6 | x6 | x6 | x6 | x6 | x6 | x6 | F2 F2 F2 | E4 F2 | x6 | x6 | x6 | %30
w: ||||||||||||||||
w: |||||||||||me- us spe-|ra- bo||||
 x6 | x6 | x6 | x6 | x6 | x6 | x6 | x6 ||[K:F][M:4/4] x8 | x8 | x8 | x8 | x8 | x8 | z4 z2 D3/2 E/ | %45
w: |||||||||||||||
w: ||||||||||||||me e-|
 E6 C2 | B,4 x4 | x8 | x8 | x F3/4 F/4 GD D x3 | x8 | x8 | x8 | x8 | x8 | x6 ||[K:C][M:3/4] x2 | %57
w: ||||||||||||
w: do- ce||||||||||||
 x6 | x6 | x6 | x6 | x6 | x6 | x6 | x6 | x4 F F | E2 x4 | x6 | x6 | x6 | x6 | x6 | x6 | x6 | x6 | %75
w: ||||||||||||||||||
w: ||||||||||||||||||
 x6 ||[M:2/2] x8 | x8 | x8 | x8 | x8 | x8 | x8 | x8 | x8 | x8 | x8 | x8 | x8 | x8 | x8 | x8 | x8 | %93
w: ||||||||||||||||||
w: ||||||||||||||||||
 x8 | x8 | x8 | x8 | x8 | x8 | x8 | x8 | x8 | x8 | x8 | x8 | x8 | x8 | x8 | x8 | x8 | x8 | x8 | %112
w: |||||||||||||||||||
w: |||||||||||||||||||
 x8 | x8 | x8 | x8 | x8 | x8 | x8 | x8 | x8 | x8 | x8 | x8 | x8 | x8 | x8 | x8 | x8 | x8 | x8 | %131
w: |||||||||||||||||||
w: |||||||||||||||||||
 x8 | x8 | x8 | x8 | x8 | x8 | x8 | x8 | x8 | x8 | x8 | x8 | x8 | x8 | x8 | x8 | x8 | x8 | x8 | %150
w: |||||||||||||||||||
w: |||||||||||||||||||
 x8 | x8 | x8 | x8 | x8 | x8 | x8 | x8 | x8 | x8 | x8 | x8 | x8 | x8 | x8 | x8 | x8 | x8 | x8 | %169
w: |||||||||||||||||||
w: |||||||||||||||||||
 x8 | x8 | x8 | x8 | x8 | x8 | x8 | x8 | x8 | x8 | E4 E4 | E4 x4 | x8 | x8 | x8 | x8 | x8 | x8 | %187
w: ||||||||||||||||||
w: ||||||||||su- per|nos|||||||
 x8 | x8 |] %189
w: ||
w: ||
V:5
 z6 | z6 | z6 | z6 |"^SOLO."!p!!>(! A4 A2!>)! | A2 z2 c2 |!>(! B4!>)! ^G2 | A4 z2 | %8
w: ||||Di- li-|gam te|Do- mi-|ne|
!<(! c2 d2 e2!<)! | f4 f2 |!>(! f2 ed cB!>)! |!>(! A3/2 c/!>)!!pp! e2 z2 | z2!p!"^TUTTI." A2 A2 | %13
w: for- * ti-|tu- do|me- * * a _|Do- mi- ne|di- li-|
!>(! A4!>)! z2 |"^cres." d3 B c d | d2 e z!p! c c | e2 e z e e | !>!e2 e z d2 |!<(! c2 d2 c2!<)! | %19
w: gam|for- ti- tu- do|me- a de- us|me- us fir- ma-|men- tum re-|fu- gi- um|
!>(! c2 c!>)! z z2 | B4 B2 | !>!A4 A2 |!pp! d3/2 d/ c2 B2 | A2 A z z2 | z2"^SOLO." c2 _B2 | %25
w: me- um|Do- mi-|nus re-|fu- gi- um _|me- um|De- us|
"^cres." A4 c2 | c4!f! c2 |!>(! c2 d2!>)! e2 | f2 c2 ^c2 |!p! d2 d2 z2 |!p! A2 e2 f2 | e6 | %32
w: me- us|et spe-|ra- * bo|in _ _|e- um|in _ _|e-|
 f2!p!"^TUTTI." A2 c2 | c_BAG A B | A2 G2 A2 | _B4 =B2 | A6- | A2 z2"^SOLO \nRECIT." F F || %38
w: um spe- *|ra- * * * bo in|e- * *||um|_ vi- as|
[K:F][M:4/4] B3 A A2 z A | d2 c2 z c e f | g4- gfe3/2 d/ | d2{ed} cB A2"^TUTTI."!p! c2 | %42
w: tu- * as de-|mon- stra vi- as de-|mon- * * * stra|mi- * * hi de-|
!<(! [ce]4!<)!!>(! [cf]2!>)! z/"^SOLO." c/ d/ _e/ | _e2 d3/2 d/ dcB A | cB"^TUTTI." d3/2 c/ B4 | %45
w: mon- stra se- mi- tas|tu- as e- do- * * ce|me _ me e- do-|
 c6 A2 | G4 z2 z"^SOLO RECIT." G | B3/4"^con   fuoco." _A/4 A z A c3/4 B/4"^cres." B z2 | %48
w: * ce|me me|di- ri- ge me di- ri- ge|
 z B/ B/ d3/4"^cres." c/4 c/d/ f/ _e/ z!ff! !fermata!e3/2 d/ | d c BA"_SOLO." G2 g f | %50
w: qui- a tu es sal- * va- tor me- us|me a- ver- * tas tu- am|
 f=ed c c2 z _e |!p! d2 d d _dc c c |!<(! c=B d f!<)! !>!f2 e!p!"^TUTTI." c | c2 B2 A^G=G G | %54
w: fa- * * ci- em ne|fa- ci- em tu- * am a-|ver- * tas a tu- o a|ser- vo tu- * * o|
 F c c c !>!d2 d c | _d2 c2 !fermata!A2 ||[K:C][M:3/4]!f! G2 | G2 c2 B3/2 B/ | c2 c2 z2 | %59
w: ne a- ver- tas fa- ci- em|tu- * am|Ad-|ju- tor me- us|es- to|
 f2 f2 B2 | c4 c2 | c4 A2 | A4 f2 | e2 d2 d2 | G2!pp! G2 G G | G6 | G6 | A6- | A6- | A6 |!pp! B6 | %71
w: ne de- re-|lin- quas-|me _|Do- *|* * mi-|ne quo- ni- am|tu|sua-|\--||||
 c2!<(! c2 ^G2!<)! |!>(! A2 d2 c2!>)! |!pp! B6 | c6 | !fermata!B6 ||[M:2/2] z8 | z2!mf! d2 e2 f2 | %78
w: vis in- vo-|can- ti- bus|te.|_|||Fi- * at|
 e6 d2 | d2 c2 A2 c2 | f4 e2 e2 | d4 ^d2 d2 | e2 z2 z4 | z8 | z8 | z8 | z8 | z8 |!f! A4 c4 | %89
w: Do- mi-|ne mi- se- ri-|cor- di- a|su- * per|nos||||||Fi- at|
 B6 A2 | A2 ^G2 A2 B2 | B2 A2 c2 e2- | e2 d4 c2- | c2 B2 c2 A2 |!>(! B6 ^G2!>)! |!p! A6 c2 | %96
w: Do- mi-|ne mi- se- ri-|cor- * di- a|_ tu- a|_ su- * per|nos _|su- per|
 B6 ^G2 | A6 c2 | B6 ^G2 |!f! A4 a4 | a8 | d4 g4 | g8 | c4 f4 | f8 | B8 | c4 e4 | e8- | e6 f2- | %109
w: nos _|su- per|nos _|Fi- at|su-|per _|nos|su- *|per|nos|su- per|nos|_ tu-|
 f4 e4 | d4 d4 | c2 z2!ff! c4- | c2 c2 d4- | d2 G2 A2 B2 | c8 | c8 | c6 e2 | d8 |!p! c8 | d4 d4 | %120
w: * a|su- per|nos tu-|* a su-|* * per _|nos|quem-|ad- mo-|dum|spe-|ra- vi-|
 G4!f! e4 | f6 c2 | c2 _B2 A2 A2 | d2 c2 =B2 A2 | B8 | _B2 d2 c2 B2 | A2 c2 _B2 A2 | A4!>(! A4 | %128
w: mus in|te in|te _ _ spe-|ra- * * vi-|mus|quem- * ad- mo-|dum _ _ spe-|ra- vi-|
 A4!>)! A4 |!p! e8 | d8 | e6 ^c2 |!ff! d4 !>!d4- | d4 !>!d4- | d4 d4 | d2 ^f2 g2 a2 | d2 B2 c4- | %137
w: mus in|te|_|* in|te spe-|* ra-|* vi-|mus _ _ spe-|ra- vi- mus|
 c2 G2 A2 B2 | c4 c4 | c6 B2 | A2 A2 B2 G2 | c2 d2 e2 f2 | g2 d2 g2 f2 | e2 c2 f2 e2 | %144
w: _ _ _ spe-|ra- vi-|mus quem-|ad- mo- dum spe-|ra- vi- mus spe-|ra- * * *||
 d2 B2 e2 d2 | c2 e4 d2 |!>(! c4 A2!>)! d2 |!p! B6 ^G2 | A6 c2 | B6 ^G2 | A6 c2 | B6 d2 | c6 e2 | %153
w: * * * vi-|mus quem- *|ad- * mo-|dum spe-|ra- vi-|mus in|te _|quem- *|ad- mo-|
"^cres." e8- | e6 c2 | c2!>(! B2 c2 A2!>)! | B8 | e8 | e4 e4 | ^d6 =d2 | d8 | c8 | c4 c4 | d8- | %164
w: dum|_ spe-|ra- vi- mus in|te|quem-|ad- mo-|dum spe-|ra-|vi-|mus spe-|ra-|
 d4 c4 | !fermata!B8 | z8 | z8 |!ff! c2 B2 A4 | B2 c2 d2 B2 | c2 c2 d2 e2 | f4 z4 | z2 B2 c2 d2 | %173
w: * vi-|mus|||Fi- * at|su- per nos mi-|se- ri- cor- di-|a|tu- * *|
 e4 z4 | z2 A2 B2 c2 | d4 z4 | B8 | c8 | A8 | A4 d4 | !fermata!c4 z4 | %181
w: a|Do- * mi-|ne|Do-|mi-|ne|su- per|nos|
"^ritard"!>(! !fermata!f8!>)! |!>(! !fermata!f8!>)! |!>(! !fermata!d8!>)! | c2 ^G2 A2 B2 | %185
w: quem-|ad-|mo-|dum spe- ra- vi-|
 c2 z2 z4 | z2 f2 e2!>(! d2 |"^ritard" [Ac]2 d2!>)!!pp! c2 B2 | !fermata!A4 z4 |] %189
w: mus|spe- * *|ra- vi- mus in|te.|
V:6
 x6 | x6 | x6 | x6 | x6 | x6 | x6 | x6 | x6 | x6 | x6 | x6 | x6 | x6 | x3 G G G | G2 c x3 | x6 | %17
w: |||||||||||||||||
w: |||||||||||||||||
 x6 | x6 | x6 | x6 | x6 | x6 | x6 | x6 | x6 | x6 | x6 | x6 | x6 | x2 c4 | _B6 | A2 x4 | x6 | x6 | %35
w: ||||||||||||||||||
w: ||||||||||||||||||
 x6 | x6 | x6 ||[K:F][M:4/4] x8 | x8 | x8 | x8 | x8 | x8 | x8 | x8 | x8 | x8 | x8 | x4 B c d2 | %50
w: |||||||||||||||
w: ||||||||||||||me a- ver-|
 G2 z2 z4 | x8 | x8 | x8 | x8 | x6 ||[K:C][M:3/4] x2 | x6 | x6 | x6 | x6 | x6 | x6 | x6 | x6 | x6 | %66
w: ||||||||||||||||
w: tas||||||||||||||||
 x6 | x6 | x6 | x6 | x6 | x6 | x6 | x6 | x6 | x6 ||[M:2/2] x8 | x8 | x8 | x8 | x8 | x8 | x8 | x8 | %84
w: ||||||||||||||||||
w: ||||||||||||||||||
 x8 | x8 | x8 | x8 | x8 | x8 | x8 | x8 | x8 | x8 | x8 | x8 | x8 | x8 | x8 | x8 | x8 | x8 | x8 | %103
w: |||||||||||||||||||
w: |||||||||||||||||||
 x8 | x8 | x8 | x8 | x8 | z2 ^G2 A4 | d4 c4 | B4 B4 | G2 x6 | x8 | x8 | x8 | x8 | x8 | x8 | x8 | %119
w: ||||||||||||||||
w: |||||tu- *|* a||||||||||
 x8 | x8 | x8 | x8 | x8 | x8 | x8 | x8 | x8 | x8 | x8 | x8 | x8 | x8 | x8 | x8 | x8 | x8 | x8 | %138
w: |||||||||||||||||||
w: |||||||||||||||||||
 x8 | x8 | x8 | x8 | x8 | x8 | x8 | x8 | x8 | x8 | x8 | x8 | x8 | x8 | x8 | x8 | x8 | x8 | x8 | %157
w: |||||||||||||||||||
w: |||||||||||||||||||
 x8 | x8 | x8 | x8 | x8 | x8 | x8 | x8 | x8 | x8 | x8 | x8 | x8 | x8 | x8 | x8 | x8 | x8 | x8 | %176
w: |||||||||||||||||||
w: |||||||||||||||||||
 x8 | x8 | x8 | x8 | x8 | x8 | x8 | x8 | x8 | x8 | x2 d2 c2 B2 | x8 | x8 |] %189
w: |||||||||||||
w: |||||||||||||
V:7
"^SOLO." A,,3/2 B,,/ C,2 A,, z |!<(!!>(! F,3/2!<)!!>)! E,/ D,2 z2 |!>(! D,3 C, B,, A,,!>)! | %3
w: Di- li- gam te|Do- mi- ne|for- ti- tu- do|
 E,2 E, z z2 | z6 | z6 | z6 | z6 | z6 | z6 | z6 | z6 |"^TUTTI."!p! A,,3/2 B,,/ C,2 A,,2 | %13
w: me- a|||||||||di- li- gam te|
!>(! F,3/2 E,/ D,2!>)! z2 |"^cres." G,3 F, E, D, | C,2 C, z!p! C, C, | B,,2 B,, z A,, C, | %17
w: Do- mi- ne|for- ti- tu- do|me- a de- us|me- us fir- ma-|
 !>!E,2 E, z E,2 |!<(! F,2 D,2 E,2!<)! |!>(! ^F,2 F,!>)! z z2 | =F,2 E,2 ^G,2 | !>!A,4 A,2 | %22
w: men- tum re-|fu- gi- um|me- um|Do- * mi-|nus re-|
!pp! D,3/2 D,/ E,4 |!<(! E,4!<)! G,2 |"^SOLO." F,6 |"^cres." F,6 | C,6!f! |!>(! C,6!>)! | %28
w: fu- gi- um|me- um|De-|us|me-|us|
 F,4 A,,2 |!p! _B,,2 B,,2 z2 |!p! C,6 | C,6 | F,2!p!"^TUTTI." A,,4 | _B,,2 B,,2 B,,2 | [C,,C,]6 | %35
w: et spe-|ra- bo|in|e-|um spe-|ra- bo in|e-|
 [C,,C,]2 [D,,D,]2 [E,,E,]2 | F,2 C,2 A,,2 | F,2 z2 z2 ||[K:F][M:4/4] z8 | z8 | z8 | %41
w: |um _ _|_||||
 z4 z2!p! [F,,F,]2 |!<(! [F,,F,]4!<)!!>(! [F,,F,]2!>)! z2 | z8 | [G,,G,]8 | [G,,G,]4 [G,,G,]4 | %46
w: de-|mon- stra||e|do- ce|
 [G,,G,]4 z4 | z8 | z8 | z4!p!"^a Tempo.""_SOLO." G,,!<(! A,, B,, =B,,!<)! | %50
w: me|||me a- ver- tas|
 C,2 D,!>(! E, F,2 F, G,!>)! |!p! ^F,A,G, =F, E,G, F, E, | %52
w: fa- ci- em tu- am a|ser- * * vo tu- * o a-|
!<(! D,2 G,,3/2 G,,/!<)! !>!C,2 C,!p!"^TUTTI." [E,,E,] | [F,,F,]2 [_B,,,_B,,]2 [C,,C,]2 [C,,C,]2 | %54
w: ver- tas a tu- o a|ser- vo tu- o|
 [F,,F,] [F,,F,] [F,,F,] [F,,F,] !>![F,,F,]2 [F,,F,] [F,,F,] | [F,,F,]4 !fermata![F,,F,]2 || %56
w: ne a- ver- tas fa- ci- em|tu- am|
[K:C][M:3/4]!f! C,2 | C,2 E,2 D,3/2 D,/ | C,2 C,2 z2 | [G,,G,]2 [G,,G,]2 [G,,G,]2 | C,2 E,2 G,2 | %61
w: Ad-|ju- tor me- us|es- to|ne de- re-|lin- * quas-|
 F,4 E,2 | D,6 | [G,,G,]6 | C,4 z2 | z2!pp! C,2 C, C, | C,2 z2 z2 | z2 ^C, C, z2 | %68
w: me _|Do-|mi-|ne|quo- ni- am|tu|sua- vis|
 z2"^cres." D,2 E,2 |!<(! ^F,3/2!<)!!>(! F,/ F,2!>)! z2 | z2!pp! ^G,2 z2 | z2!<(! A,2 E,2!<)! | %72
w: et mi-|se- ri- cors|tu|in- vo-|
!>(! F,2 D,2 ^D,2!>)! |!pp! E,6- | E,6- | !fermata!E,6 ||[M:2/2] z8 | z8 | z8 | z8 | z8 | z8 | %82
w: can- ti- bus|te.|_||||||||
!mf! E,4 =F,4 | E,6 D,2 | C,2 E,2 ^F,2 ^G,2 | A,2 B,2 C4 | C2 B,4 A,2 | ^G,2 ^F,2 G,2 E,2 | %88
w: Fi- at|Do- mi-|ne mi- se- ri-|cor- * *|* di- a|su- * * per|
 A,4 z4 |!f! D,4 F,4 | E,4 E,2 D,2 | D,2 C,2 A,,2 C,2 | D,4 E,4 | F,8 |!>(! [E,,E,]8-!>)! | %95
w: nos|Fi- at|Do- mi- ne|Do- * mi- ne|su- *|per|nos|
!p! [E,,E,]8- | [E,,E,]8 | [E,,E,]8 | [E,,E,]8 |!f! [A,,A,]6 [G,,G,]2 | F,2 E,2 F,2 D,2 | %101
w: _||su-|per|nos _|Fi- * * at|
 G,4 G,2 F,2 | E,2 D,2 E,2 C,2 | F,6 E,2 | D,2 C,2 D,2 B,,2 | E,6 D,2 | C,4 B,,4 | A,,4 z4 | z8 | %109
w: mi- se- ri-|cor- * di- a|tu- a|su- * * per|nos _|su- per|nos||
 z8 | z4!ff! [G,,G,]2 [G,,G,]2 | [C,C]8 | F,2 E,2 F,2 ^F,2 | G,6 =F,2 | F,2 E,2 C,2 E,2 | A,4 G,4 | %116
w: |su- per|nos|quem- * ad- mo-|dum spe-|ra- vi- mus spe-|ra- vi-|
 F,4 ^F,4 |!>(! [G,,G,]8-!>)! |!p! [G,,G,]8- | [G,,G,]8 |!f! C2 D2 C2 _B,2 | A,2 _B,2 A,2 G,2 | %122
w: mus in|te|_||quem- * * *|ad- * * *|
 F,2 G,2 F,2 E,2 | D,8 | G,8 | C,8 | !>!F,8 | E,2 G,2 F,2!>(! E,2 | D,2 F,2!>)! E,2 D,2 | %129
w: mo- * * dum|spe-|ra-|vi-|mus|in _ _ _|_ _ _ _|
!p! A,,8- | A,,8- | A,,8 |!ff! D,2 E,2 F,2 D,2 | E,2 F,2 G,2 E,2 | F,2 G,2 A,2 G,2 | %135
w: te|_||quem- * * *|ad- * * *|* * * mo-|
 ^F,2 D,2 E,2 F,2 | G,6 ^F,2 | E,4 D,4 | C,4 z4 | z8 | z8 | z8 | z8 | z8 | z4 z2 [E,,E,]2 | %145
w: dum _ _ spe-|ra- vi-|mus in|te||||||spe-|
 [A,,A,]2 [B,,B,]2 [C,C]2 [B,,B,]2 |!>(! [A,,A,]2 [=G,,=G,]2 [^F,,^F,]2 [=F,,=F,]2!>)! |!p! E,8- | %148
w: ra- * * vi-|mus _ _ in||
 E,8- | E,8- | E,8- | E,8- | E,8- |"^cres." E,8- | E,8- |!>(! E,8-!>)! | E,8- | E,8- | E,8- | %159
w: |||||||||||
 E,8- | E,8 | E,8 | A,8 | B,8 | B,4 A,4 | !fermata!^G,8 | z8 | z8 |!ff! E,4 F,4 | E,6 D,2 | %170
w: ||spe-|ra-||vi- *|mus|||Fi- at|Do- mi-|
 C,2 [A,,A,]2 [B,,B,]2 [^C,^C]2 | [D,D]4 z4 | z2 [G,,G,]2 [A,,A,]2 [B,,B,]2 | [C,C]4 z4 | %174
w: ne su- * per|nos|tu- * *|a|
 z2 [F,,F,]2 [G,,G,]2 [A,,A,]2 | [B,,B,]4 z4 | E,8 | A,8 | [D,,D,]2 [E,,E,]2 [F,,F,]2 [D,,D,]2 | %179
w: Do- * mi-|ne|Do-|mi-|ne _ _ _|
 [E,,E,]4 [E,,E,]4 | !fermata![A,,A,]4 z4 |"^ritard"!>(! !fermata![F,,F,]8!>)! | %182
w: su- per|nos|quem-|
!>(! !fermata![D,,D,]8!>)! |!>(! !fermata![E,,E,]8!>)! | A,,8 | A,,8 | [A,,A,]6!>(! [A,,A,]2 | %187
w: ad-|mo-|dum|spe-|ra- vi-|
"^ritard" A,2 F,2!>)!!pp! E,2 E,2 | !fermata!E,4 z4 |] %189
w: mus _ _ in|te.|
V:8
 x6 | x6 | x6 | x6 | x6 | x6 | x6 | x6 | x6 | x6 | x6 | x6 | x6 | x6 | x6 | x6 | x6 | x6 | x6 | %19
w: |||||||||||||||||||
 x6 | x6 | x6 | x6 | A,,4 G,,2 | F,,6 | F,,6 | x6 | x6 | x6 | x6 | x6 | x6 | x6 | x6 | x6 | x6 | %36
w: |||||||||||||||||
 F,,6- | F,,2 x4 ||[K:F][M:4/4] x8 | x8 | x8 | x8 | x8 | x8 | x8 | x8 | x8 | x8 | x8 | x8 | x8 | %51
w: |||||||||||||||
 x8 | x8 | x8 | x8 | x6 ||[K:C][M:3/4] x2 | x6 | x6 | x6 | x6 | x6 | x6 | x6 | x6 | x6 | x6 | x6 | %68
w: |||||||||||||||||
 x6 | x6 | x6 | x6 | x6 | x6 | x6 | x6 ||[M:2/2] x8 | x8 | x8 | x8 | x8 | x8 | x8 | x8 | x8 | x8 | %86
w: ||||||||||||||||||
 x8 | x8 | x8 | x8 | x8 | x8 | x8 | x8 | x8 | x8 | x8 | x8 | x8 | x8 | x8 | x8 | x8 | x8 | x8 | %105
w: |||||||||||||||||||
 x8 | x8 | x8 | x8 | x8 | x8 | x8 | x8 | x8 | x8 | x8 | x8 | x8 | x8 | x8 | x8 | x8 | x8 | x8 | %124
w: |||||||||||||||||||
 x8 | x8 | x8 | x8 | x8 | x8 | x8 | x8 | x8 | x8 | x8 | x8 | x8 | x8 | x8 | x8 | x8 | x8 | x8 | %143
w: |||||||||||||||||||
 x8 | x8 | x8 | x8 | E,,8- | E,,8- | E,,8- | E,,8- | E,,8- | E,,8- | E,,8- | E,,8- | E,,8- | %156
w: ||||te|_||||||||
 E,,8- | E,,8- | E,,8- | E,,8- | E,,8 | E,,8 | [E,,E,]8- | [E,,E,]8 | [E,,E,]8 | [E,,E,]8 | x8 | %167
w: |||||||||||
 x8 | x8 | x8 | x8 | x8 | x8 | x8 | x8 | x8 | x8 | x8 | x8 | x8 | x8 | x8 | x8 | x8 | x8 | x8 | %186
w: |||||||||||||||||||
 x8 | A,,4- A,,2 A,,2 | A,,4 x4 |] %189
w: |||
V:9
 x6 | x6 | x6 | x6 | x6 | x6 | x6 | x6 | x6 | x6 | x6 | x6 | x6 | x6 | x6 | x6 | x6 | x6 | x6 | %19
w: |||||||||||||||||||
w: |||||||||||||||||||
 x6 | x6 | x6 | x6 | x6 | x6 | x6 | x6 | x6 | x6 | x6 | x6 | x6 | x6 | x6 | x6 | x6 | x6 | x6 || %38
w: |||||||||||||||||||
w: |||||||||||||||||||
[K:F][M:4/4] x8 | x8 | x8 | x8 | x8 | x8 | x8 | x8 | x8 | x8 | x8 | x8 | x8 | x8 | x8 | x8 | x8 | %55
w: |||||||||||||||||
w: |||||||||||||||||
 x6 ||[K:C][M:3/4] x2 | x6 | x6 | x6 | x6 | x6 | x6 | x6 | x6 | x6 | x6 | x6 | x6 | x6 | x6 | x6 | %72
w: |||||||||||||||||
w: |||||||||||||||||
 x6 | x6 | x6 | x6 ||[M:2/2] x8 | x8 | x8 | x8 | x8 | x8 | x8 | x8 | x8 | x8 | x8 | x8 | x8 | x8 | %90
w: ||||||||||||||||||
w: ||||||||||||||||||
 x8 | x8 | x8 | x8 | x8 | x8 | x8 | x8 | x8 | x8 | x8 | x8 | x8 | x8 | x8 | x8 | x8 | x8 | x8 | %109
w: |||||||||||||||||||
w: |||||||||||||||||||
 x8 | x8 | x8 | x8 | x8 | x8 | x8 | x8 | x8 | x8 | x8 | x8 | x8 | x8 | x8 | x8 | x8 | x8 | x8 | %128
w: |||||||||||||||||||
w: |||||||||||||||||||
 x8 | x8 | x8 | x8 | x8 | x8 | x8 | x8 | x8 | x8 | x8 | x8 | x8 | x8 | x8 | x8 | x8 | x8 | x8 | %147
w: |||||||||||||||||||
w: |||||||||||||||||||
 x8 | x8 | x8 | x8 | x8 | x8 | x8 | x8 | x8 | E,4 ^G,2 B,2 | A,2 E,2 A,2 A,2 | A,8- | A,6 ^G,2 | %160
w: |||||||||||||
w: |||||||||* quem _|ad- mo- dum spe-|ra-|* vi-|
 ^G,8 | A,8 | x8 | x8 | x8 | x8 | x8 | x8 | x8 | x8 | x8 | x8 | x8 | x8 | x8 | x8 | x8 | x8 | x8 | %179
w: |||||||||||||||||||
w: mus|||||||||||||||||||
 x8 | x8 | x8 | x8 | x8 | x8 | x8 | x8 | x8 | x8 |] %189
w: ||||||||||
w: ||||||||||

